packages/tokens/icons/report2/size32Px.svg

<svg viewBox="0 0 32 32" fill="none" xmlns="http://www.w3.org/2000/svg" width="1em" height="1em"><path d="M26 8C26.2761 8 26.5 7.77614 26.5 7.5C26.5 7.22386 26.2761 7 26 7V8ZM25.9142 6.91421L26.2678 6.56066L25.9142 6.91421ZM22.0858 3.08579L21.7322 3.43934L22.0858 3.08579ZM24.5 29L7.5 29V30L24.5 30V29ZM6 27.5L6 4.5H5L5 27.5H6ZM7.5 3L20.6716 3V2L7.5 2V3ZM26 8.32843L26 27.5H27L27 8.32843H26ZM21 2.98077V5.5H22V2.98077H21ZM23.5 8H26V7L23.5 7V8ZM21.7322 3.43934L25.5607 7.26777L26.2678 6.56066L22.4393 2.73223L21.7322 3.43934ZM21 5.5C21 6.88071 22.1193 8 23.5 8V7C22.6716 7 22 6.32843 22 5.5H21ZM27 8.32843C27 7.66539 26.7366 7.0295 26.2678 6.56066L25.5607 7.26777C25.842 7.54907 26 7.9306 26 8.32843H27ZM20.6716 3C21.0694 3 21.4509 3.15804 21.7322 3.43934L22.4393 2.73223C21.9705 2.26339 21.3346 2 20.6716 2V3ZM7.5 29C6.67157 29 6 28.3284 6 27.5H5C5 28.8807 6.11929 30 7.5 30V29ZM24.5 30C25.8807 30 27 28.8807 27 27.5H26C26 28.3284 25.3284 29 24.5 29V30ZM6 4.5C6 3.67157 6.67157 3 7.5 3V2C6.11929 2 5 3.11929 5 4.5H6Z" fill="currentColor"/><path d="M18.5 19.5H23.5M18.5 22.5H23.5M18.5 25.5H22" stroke="currentColor" stroke-linecap="round"/><circle cx="12.5" cy="22.5" r="4" stroke="currentColor"/><path d="M12.5 18.5V23M12.5 23L16 21M12.5 23L16 24" stroke="currentColor" stroke-linejoin="round"/><path d="M23.5 15.5L9.5 15.5C8.94772 15.5 8.5 15.0523 8.5 14.5L8.5 5.5" stroke="currentColor" stroke-linecap="round"/><path d="M8.5 13L12.5 8L16 13L19 9.5L21.5 13L23.5 10.5" stroke="currentColor" stroke-linecap="round" stroke-linejoin="round"/></svg>

<svg xmlns="http://www.w3.org/2000/svg" fill="none" viewBox="0 0 32 32" width="1em" height="1em"><path fill="currentColor" d="M26 8a.5.5 0 0 0 0-1v1Zm-.086-1.086.354-.353-.354.353Zm-3.828-3.828-.354.353.354-.353ZM24.5 29h-17v1h17v-1ZM6 27.5v-23H5v23h1ZM7.5 3h13.172V2H7.5v1ZM26 8.328V27.5h1V8.328h-1Zm-5-5.347V5.5h1V2.98h-1ZM23.5 8H26V7h-2.5v1Zm-1.768-4.56 3.829 3.828.707-.707-3.829-3.829-.707.707ZM21 5.5A2.5 2.5 0 0 0 23.5 8V7A1.5 1.5 0 0 1 22 5.5h-1Zm6 2.828a2.5 2.5 0 0 0-.732-1.767l-.707.707A1.5 1.5 0 0 1 26 8.328h1ZM20.672 3a1.5 1.5 0 0 1 1.06.44l.707-.708A2.5 2.5 0 0 0 20.672 2v1ZM7.5 29A1.5 1.5 0 0 1 6 27.5H5A2.5 2.5 0 0 0 7.5 30v-1Zm17 1a2.5 2.5 0 0 0 2.5-2.5h-1a1.5 1.5 0 0 1-1.5 1.5v1ZM6 4.5A1.5 1.5 0 0 1 7.5 3V2A2.5 2.5 0 0 0 5 4.5h1Z"/><path stroke="currentColor" stroke-linecap="round" d="M18.5 19.5h5m-5 3h5m-5 3H22"/><circle cx="12.5" cy="22.5" r="4" stroke="currentColor"/><path stroke="currentColor" stroke-linejoin="round" d="M12.5 18.5V23m0 0 3.5-2m-3.5 2 3.5 1"/><path stroke="currentColor" stroke-linecap="round" d="M23.5 15.5h-14a1 1 0 0 1-1-1v-9"/><path stroke="currentColor" stroke-linecap="round" stroke-linejoin="round" d="m8.5 13 4-5 3.5 5 3-3.5 2.5 3.5 2-2.5"/></svg>
